X: 0242
T: the Thistle
P: Allanach
C: Nan Main
B: Miss Milligan's Miscellany v.2 #42
Z: 2019 John Chambers <jc:trillian.mit.edu>
M: 2/4
L: 1/16
R: march, reel
K: D
%
ag |\
"D"f2d2 "F#/D"f2d'2 | "G"b4 "D"a2ag | "D"f2d2 d2ef | "C"gfed =c2"A7"ag |\
"D"f2d2 "F#/D"f2d'2 | "G"b2d'2 "D/G"g2b2 | "D"a2gf "E#/A7"edce | "D"d4- d2d'c' ||
"G"b2ab c'd'c'b | "D"a2d'2 f3a | "G"bagf "E7"gfed | "A"c2e2 A2a2 |\
"D"d'2=c'b "C"c'2ba | "G"bag2 "D"a2f2 | "D"a2gf "A7"edce | "D"defg "A7"a2 :|

